local-console-ui/public/images/light/info_icon.svg

<?xml version="1.0" encoding="UTF-8"?>
<svg width="24" height="24" fill="none" version="1.1" viewBox="1.75 2.25 20.5 20.5" xmlns="http://www.w3.org/2000/svg">
<path d="m11.325 17.5h1.5v-6h-1.5v6zm0.6745-7.85c0.2337 0 0.4297-0.07667 0.588-0.23s0.2375-0.34333 0.2375-0.57c0-0.24083-0.079-0.44271-0.237-0.60562-0.1581-0.16292-0.3539-0.24438-0.5875-0.24438-0.2337 0-0.4297 0.08146-0.588 0.24438-0.1583 0.16291-0.2375 0.36479-0.2375 0.60562 0 0.22667 0.079 0.41667 0.2371 0.57 0.158 0.15333 0.3538 0.23 0.5874 0.23zm0.0071 12.85c-1.3788 0-2.6747-0.2625-3.8874-0.7875s-2.2733-1.2417-3.1816-2.15-1.625-1.9695-2.15-3.1835-0.7875-2.5112-0.7875-3.8915 0.2625-2.6775 0.7875-3.8915 1.2417-2.271 2.15-3.171 1.9695-1.6125 3.1835-2.1375c1.214-0.525 2.5112-0.7875 3.8915-0.7875s2.6775 0.2625 3.8915 0.7875 2.271 1.2375 3.171 2.1375 1.6125 1.9583 2.1375 3.175 0.7875 2.5145 0.7875 3.8934-0.2625 2.6747-0.7875 3.8875c-0.525 1.2127-1.2375 2.2717-2.1375 3.177s-1.9583 1.6219-3.175 2.15-2.5145 0.7921-3.8934 0.7921zm0.0059-1.5c2.3583 0 4.3625-0.8292 6.0125-2.4875s2.475-3.6667 2.475-6.025-0.8234-4.3625-2.4703-6.0125-3.6568-2.475-6.0297-2.475c-2.35 0-4.3542 0.82343-6.0125 2.4703-1.6583 1.6469-2.4875 3.6568-2.4875 6.0297 0 2.35 0.82917 4.3542 2.4875 6.0125s3.6667 2.4875 6.025 2.4875z" fill="#3E455C"/>
</svg>

<svg width="24" height="24" viewBox="0 0 24 24" fill="none" xmlns="http://www.w3.org/2000/svg">
<path d="M11.325 17.5H12.825V11.5H11.325V17.5ZM11.9995 9.65C12.2332 9.65 12.4292 9.57333 12.5875 9.42C12.7458 9.26667 12.825 9.07667 12.825 8.85C12.825 8.60917 12.746 8.40729 12.588 8.24438C12.4299 8.08146 12.2341 8 12.0005 8C11.7668 8 11.5708 8.08146 11.4125 8.24438C11.2542 8.40729 11.175 8.60917 11.175 8.85C11.175 9.07667 11.254 9.26667 11.4121 9.42C11.5701 9.57333 11.7659 9.65 11.9995 9.65ZM12.0066 22.5C10.6278 22.5 9.33192 22.2375 8.11915 21.7125C6.90638 21.1875 5.84583 20.4708 4.9375 19.5625C4.02917 18.6542 3.3125 17.593 2.7875 16.379C2.2625 15.165 2 13.8678 2 12.4875C2 11.1072 2.2625 9.81003 2.7875 8.59602C3.3125 7.38201 4.02917 6.325 4.9375 5.425C5.84583 4.525 6.90701 3.8125 8.12103 3.2875C9.33503 2.7625 10.6322 2.5 12.0125 2.5C13.3928 2.5 14.69 2.7625 15.904 3.2875C17.118 3.8125 18.175 4.525 19.075 5.425C19.975 6.325 20.6875 7.38333 21.2125 8.6C21.7375 9.81667 22 11.1145 22 12.4934C22 13.8723 21.7375 15.1681 21.2125 16.3809C20.6875 17.5936 19.975 18.6526 19.075 19.5579C18.175 20.4632 17.1167 21.1798 15.9 21.7079C14.6833 22.236 13.3855 22.5 12.0066 22.5ZM12.0125 21C14.3708 21 16.375 20.1708 18.025 18.5125C19.675 16.8542 20.5 14.8458 20.5 12.4875C20.5 10.1292 19.6766 8.125 18.0297 6.475C16.3828 4.825 14.3729 4 12 4C9.65 4 7.64583 4.82343 5.9875 6.4703C4.32917 8.11718 3.5 10.1271 3.5 12.5C3.5 14.85 4.32917 16.8542 5.9875 18.5125C7.64583 20.1708 9.65417 21 12.0125 21Z" fill="#3E455C"/>
</svg>
